X: 2
T: Man In The Bog
M: 6/8
L: 1/8
R: jig
K: Gmaj
|: D |\
GFG dBG | ABc AGE | EDB DGA | BcB AFD |
G3 dB/A/G | AA/B/c AGE | E^DE DGB | AGF G2 :|
|: (3B/c/d/ |
gbg fed | e/f/ge dBA | Bee dGG | BA^G A2 d |
[1 g2 g f2 d | ege dBA | BEE DG/A/B | AGF G2 :|
[2 GB/A/G dB/A/G | AGE D3 | E^DE DGB | AGF G2 |]
Yes, you could still do the drop down moody Es ~ | BEE dEE | ~
